public/img/api_desktop.svg

<?xml version="1.0" encoding="utf-8"?>
<!-- Generator: Adobe Illustrator 24.0.0, SVG Export Plug-In . SVG Version: 6.00 Build 0)  -->
<svg version="1.1"
	 id="Ebene_1" inkscape:version="0.92.4 5da689c313, 2019-01-14" sodipodi:docname="api_white.svg" xmlns:cc="http://creativecommons.org/ns#" xmlns:dc="http://purl.org/dc/elements/1.1/" xmlns:inkscape="http://www.inkscape.org/namespaces/inkscape" xmlns:rdf="http://www.w3.org/1999/02/22-rdf-syntax-ns#" xmlns:sodipodi="http://sodipodi.sourceforge.net/DTD/sodipodi-0.dtd" xmlns:svg="http://www.w3.org/2000/svg"
	 xmlns="http://www.w3.org/2000/svg" xmlns:xlink="http://www.w3.org/1999/xlink" x="0px" y="0px" viewBox="0 0 48 48"
	 style="enable-background:new 0 0 48 48;" xml:space="preserve">
<style type="text/css">
	.st0{fill:#FFFFFF;}
</style>
<sodipodi:namedview  bordercolor="#666666" borderopacity="1" gridtolerance="10" guidetolerance="10" id="namedview10" inkscape:current-layer="Ebene_1" inkscape:cx="4.639102" inkscape:cy="16.071065" inkscape:pageopacity="0" inkscape:pageshadow="2" inkscape:window-height="805" inkscape:window-maximized="0" inkscape:window-width="1313" inkscape:window-x="268" inkscape:window-y="76" inkscape:zoom="6.9532167" objecttolerance="10" pagecolor="#ffffff" showgrid="false">
	</sodipodi:namedview>
<g id="g1509" transform="matrix(0.92307692,0,0,0.92306452,-3.6923077,-3.8609357)">
	<polygon id="polygon1503" class="st0" points="22.1,29.9 20.6,34.4 23.5,34.4 	"/>
	<path id="path1505" inkscape:connector-curvature="0" class="st0" d="M33.4,29.2h-2.1v3.4h2.1c0.5,0,1-0.1,1.3-0.4
		c0.3-0.3,0.5-0.7,0.5-1.3c0-0.6-0.2-1-0.5-1.3C34.3,29.4,33.9,29.2,33.4,29.2z"/>
	<path id="path1507" inkscape:connector-curvature="0" class="st0" d="M48.4,25.3c-0.2-4.4-3.8-7.8-8.3-7.8c-0.9,0-1.7,0.1-2.5,0.4
		c-2.5-4-6.9-6.5-11.7-6.5c-7.6,0-13.7,6.1-13.8,13.7C7.3,26.8,4,31.3,4,36.5c0,6.6,5.4,12.1,12.1,12.1h27.8
		c6.7,0,12.1-5.4,12.1-12.1C55.9,31.5,52.9,27.2,48.4,25.3z M24.9,38.8l-0.8-2.4H20l-0.8,2.4h-2.5l4.1-11.5h2.7l4,11.5L24.9,38.8z
		 M36.5,33.8c-0.7,0.6-1.6,0.8-2.9,0.8h-2.4v4.1h-2.4V27.2h4.9c1.1,0,2,0.3,2.7,0.9s1,1.5,1,2.8C37.5,32.2,37.1,33.2,36.5,33.8z
		 M41.3,38.8h-2.4V27.2h2.4L41.3,38.8z"/>
</g>
</svg>

<?xml version="1.0" encoding="UTF-8" standalone="no"?>
<!-- Generator: Adobe Illustrator 23.0.4, SVG Export Plug-In . SVG Version: 6.00 Build 0)  -->

<svg
   xmlns:dc="http://purl.org/dc/elements/1.1/"
   xmlns:cc="http://creativecommons.org/ns#"
   xmlns:rdf="http://www.w3.org/1999/02/22-rdf-syntax-ns#"
   xmlns:svg="http://www.w3.org/2000/svg"
   xmlns="http://www.w3.org/2000/svg"
   xmlns:sodipodi="http://sodipodi.sourceforge.net/DTD/sodipodi-0.dtd"
   xmlns:inkscape="http://www.inkscape.org/namespaces/inkscape"
   version="1.1"
   id="Ebene_1"
   x="0px"
   y="0px"
   viewBox="0 0 48 48"
   style="enable-background:new 0 0 48 48;"
   xml:space="preserve"
   sodipodi:docname="api_white.svg"
   inkscape:version="0.92.4 5da689c313, 2019-01-14"><metadata
   id="metadata14"><rdf:RDF><cc:Work
       rdf:about=""><dc:format>image/svg+xml</dc:format><dc:type
         rdf:resource="http://purl.org/dc/dcmitype/StillImage" /><dc:title></dc:title></cc:Work></rdf:RDF></metadata><defs
   id="defs12" /><sodipodi:namedview
   pagecolor="#ffffff"
   bordercolor="#666666"
   borderopacity="1"
   objecttolerance="10"
   gridtolerance="10"
   guidetolerance="10"
   inkscape:pageopacity="0"
   inkscape:pageshadow="2"
   inkscape:window-width="1313"
   inkscape:window-height="805"
   id="namedview10"
   showgrid="false"
   inkscape:zoom="6.9532167"
   inkscape:cx="4.639102"
   inkscape:cy="16.071065"
   inkscape:window-x="268"
   inkscape:window-y="76"
   inkscape:window-maximized="0"
   inkscape:current-layer="Ebene_1" />
<style
   type="text/css"
   id="style2">
	.st0{fill:none;stroke:#795548;stroke-width:2;stroke-linecap:round;stroke-miterlimit:10;}
	.st1{fill:none;stroke:#795548;stroke-width:2;stroke-linecap:round;stroke-linejoin:round;stroke-miterlimit:10;}
</style>

<g
   transform="matrix(0.92307692,0,0,0.92306452,-3.6923077,-3.8609357)"
   id="g1509"
   style="fill:#d5c6b6;fill-opacity:1;stroke:none"><polygon
     class="st0"
     points="22.1,29.9 20.6,34.4 23.5,34.4 "
     id="polygon1503"
     style="fill:#d5c6b6;fill-opacity:1;stroke:none;stroke-width:2;stroke-linecap:round;stroke-miterlimit:10" /><path
     inkscape:connector-curvature="0"
     class="st0"
     d="m 33.4,29.2 h -2.1 v 3.4 h 2.1 c 0.5,0 1,-0.1 1.3,-0.4 0.3,-0.3 0.5,-0.7 0.5,-1.3 0,-0.6 -0.2,-1 -0.5,-1.3 -0.4,-0.2 -0.8,-0.4 -1.3,-0.4 z"
     id="path1505"
     style="fill:#d5c6b6;fill-opacity:1;stroke:none;stroke-width:2;stroke-linecap:round;stroke-miterlimit:10" /><path
     inkscape:connector-curvature="0"
     class="st0"
     d="m 48.4,25.3 c -0.2,-4.4 -3.8,-7.8 -8.3,-7.8 -0.9,0 -1.7,0.1 -2.5,0.4 -2.5,-4 -6.9,-6.5 -11.7,-6.5 -7.6,0 -13.7,6.1 -13.8,13.7 C 7.3,26.8 4,31.3 4,36.5 4,43.1 9.4,48.6 16.1,48.6 H 43.9 C 50.6,48.6 56,43.2 56,36.5 55.9,31.5 52.9,27.2 48.4,25.3 Z M 24.9,38.8 24.1,36.4 H 20 l -0.8,2.4 h -2.5 l 4.1,-11.5 h 2.7 l 4,11.5 z m 11.6,-5 c -0.7,0.6 -1.6,0.8 -2.9,0.8 h -2.4 v 4.1 H 28.8 V 27.2 h 4.9 c 1.1,0 2,0.3 2.7,0.9 0.7,0.6 1,1.5 1,2.8 0.1,1.3 -0.3,2.3 -0.9,2.9 z m 4.8,5 H 38.9 V 27.2 h 2.4 z"
     id="path1507"
     style="fill:#d5c6b6;fill-opacity:1;stroke:none;stroke-width:2;stroke-linecap:round;stroke-miterlimit:10" /></g></svg>
